X: 1
T: Drummond Castle
C:
%D:
R: jig
S: Fiddle Hell Online 2022-4-8 handout for Alasdair Frazer workshop
Z: 2022 John Chambers <jc:trillian.mit.edu>
M: 6/8
L: 1/8
K: Am	% and C
"^A"[|] z |\
ABA a3 | age g3 | c2c edc | Bdg dBG |\
ABA a3 | age g3 | ege deg | edB A2 :|
"^B"|: B |\
c2c cec | d2d ded | c2c edc | Bdg dBG |
c2c edc | deg a2g | ege deg | edB A2 :|
